svg/shield_sword_outline.svg

<svg xmlns="http://www.w3.org/2000/svg" viewBox="0 0 24 24"><path d="m12 1 9 4v6c0 5.5-3.8 10.7-9 12-5.2-1.3-9-6.5-9-12V5zm0 2.2L5 6.3v4.9c0 4.3 3.2 8.8 7 9.8 3.8-1 7-5.5 7-9.8V6.3zm0 2.3 2 1.6-1 5.9h2v2h-2v3h-2v-3H9v-2h2l-1-5.9z"/></svg>

<svg xmlns="http://www.w3.org/2000/svg" id="mdi-shield-sword-outline" viewBox="0 0 24 24"><path d="M12 1L21 5V11C21 16.5 17.2 21.7 12 23C6.8 21.7 3 16.5 3 11V5L12 1M12 3.2L5 6.3V11.2C5 15.5 8.2 20 12 21C15.8 20 19 15.5 19 11.2V6.3L12 3.2M12 5.5L14 7.1L13 13H15V15H13V18H11V15H9V13H11L10 7.1L12 5.5Z" /></svg>
